X: 1
T: Dovid, shpil es nokh a mol
T: David, play it once more
B: The Compleat Klezmer, pl 32
D: Dave Tarras ...  1939
M: 2/4
L: 1/8
K: F
"C7"C2 "A"|\
"F"A4 zC B>A | "C7"G4 zE/G/ (3FED |\
"C7"C>D EF GA Bc | "F"A3 A TGF "C7"cC |
"F"A4 zC B>A | "C7"G4 zE/G/ (3FED |\
"C7"C2 "Bb"d2 "F/A"c2 "Gm/Bb"B2 | "F"(3ABA "C7"GAG "F"F2 :|
%
"B"|: zA |\
"F"(3=BcA (3BcA (3BcA F2 | "Gm"^cdB (3cdB (3cdB G>F |\
"C7"E e2 d cA/c/ (3BAG | "F"(3ABc "C7"(3BAG "F"(3FED "C7"C2 |
"F"(3=BcA (3BcA (3BcA F2 | "Gm"(3^cdB (3cdB (3cdB G>F |\
"C7"E e2 d cA/c/ (3BAG | "F"AF "C7"GE "F"F2 :|
%
"A7"E2 "C"|: \
"Dm"DE FG AB Ad | A4- A4 |\
"Dm"AB ^cd "D7"(3dcB (3BAG | "Gm"G4- G2 zd |
"A7"^cd ed cB AG | "Gm"B4 zE FG |\
"A7"^G A2 A (3AGF (3FED | [1 "Dm"D4 "A7"(3A^GF (3FED :|[2 "Dm"D2 "Db7"_D2 "C7"C2 "d.C"y|]

%%sep 1 1 500
%%sep 1 1 500

